X:23
T:Forlorn Queen, The
T:R\'ioghan i nUaigneas
R:air
B:Bunting 1796
D:Michael Tubridy
Z:id:hn-air-23
M:3/4
L:1/8
Q:1/4=100
K:G
g2 dega | b4 z2 | a2 ga g/a/b | a/g/e d2 d2 |
g2 dega | b4 z2 | a2 ga g/a/b | a2 g2 ||
de | =f4 f2 | e4 de | g2 e2 dc | B2 B2 Bd |
e2 eg ed | B4 e/d/B | A2 GA G/A/B | A2 G2 de |
=f4 f2 | e4 d/e/f | g2 fe dc | B2 B2 B/c/d |
e2 e>ged | B4 e/d/B | A2 GA B2 | A2 G4 || 

